img/main/Icon.svg

<svg width="15" height="15" viewBox="0 0 15 15" fill="none" xmlns="http://www.w3.org/2000/svg">
<path d="M13.192 5.96875C12.8795 5.65625 12.4107 5.6875 12.0982 5.96875L8.53571 9.75V0.75C8.53571 0.34375 8.19196 0 7.78571 0H6.78571C6.34821 0 6.03571 0.34375 6.03571 0.75V9.75L2.44196 5.96875C2.12946 5.6875 1.66071 5.65625 1.34821 5.96875L0.660706 6.65625C0.379456 6.9375 0.379456 7.4375 0.660706 7.71875L6.75446 13.7812C7.03571 14.0938 7.50446 14.0938 7.81696 13.7812L13.8795 7.71875C14.1607 7.4375 14.1607 6.96875 13.8795 6.65625L13.192 5.96875Z" fill="#5A7184"/>
</svg>

<svg width="15" height="15" fill="none" xmlns="http://www.w3.org/2000/svg"><path d="M13.192 5.969c-.313-.313-.781-.282-1.094 0L8.536 9.75v-9a.76.76 0 0 0-.75-.75h-1a.74.74 0 0 0-.75.75v9L2.442 5.969c-.313-.282-.781-.313-1.094 0l-.687.687a.774.774 0 0 0 0 1.063l6.093 6.062c.282.313.75.313 1.063 0L13.88 7.72c.28-.282.28-.75 0-1.063l-.688-.687z" fill="#5A7184"/></svg>
